local/share/icons/dracula-icons-main/24/actions/file-zoom-out.svg

<?xml version="1.0" encoding="UTF-8"?>
<svg xmlns="http://www.w3.org/2000/svg" xmlns:xlink="http://www.w3.org/1999/xlink" width="24" height="24" viewBox="0 0 24 24">
<path fill-rule="nonzero" fill="rgb(100%, 100%, 100%)" fill-opacity="1" d="M 6 4 C 4.890625 4 4 4.890625 4 6 L 4 11 L 5 11 L 5 6 C 5 5.445312 5.445312 5 6 5 L 18 5 C 18.554688 5 19 5.445312 19 6 L 19 18 C 19 18.554688 18.554688 19 18 19 L 13 19 L 13 20 L 18 20 C 19.109375 20 20 19.109375 20 18 L 20 6 C 20 4.890625 19.109375 4 18 4 Z M 15.292969 8 L 12 11.292969 L 12 9 L 11 9 L 11 13 L 15 13 L 15 12 L 12.707031 12 L 16 8.707031 Z M 6 14 C 4.890625 14 4 14.890625 4 16 L 5 16 C 5 15.445312 5.445312 15 6 15 Z M 8 14 L 8 15 C 8.554688 15 9 15.445312 9 16 L 10 16 C 10 14.890625 9.109375 14 8 14 Z M 4 18 C 4 19.109375 4.890625 20 6 20 L 6 19 C 5.445312 19 5 18.554688 5 18 Z M 9 18 C 9 18.554688 8.554688 19 8 19 L 8 20 C 9.109375 20 10 19.109375 10 18 Z M 9 18 "/>
</svg>

<svg width="24" height="24" version="1.1" viewBox="0 0 24 24" xmlns="http://www.w3.org/2000/svg">
 <defs>
  <style id="current-color-scheme" type="text/css">.ColorScheme-Text {
        color:#FFFFFF;
      }</style>
 </defs>
 <path class="ColorScheme-Text" d="m6 4c-1.108 0-2 0.892-2 2v5h1v-5c0-0.554 0.446-1 1-1h12c0.554 0 1 0.446 1 1v12c0 0.554-0.446 1-1 1h-5v1h5c1.108 0 2-0.892 2-2v-12c0-1.108-0.892-2-2-2zm9.293 4-3.293 3.293v-2.293h-1v4h4v-1h-2.293l3.293-3.293-0.70703-0.70703zm-9.293 6c-1.108 0-2 0.892-2 2h1c0-0.554 0.446-1 1-1zm2 0v1c0.554 0 1 0.446 1 1h1c0-1.108-0.892-2-2-2zm-4 4c0 1.108 0.892 2 2 2v-1c-0.554 0-1-0.446-1-1zm5 0c0 0.554-0.446 1-1 1v1c1.108 0 2-0.892 2-2z" fill="currentColor"/>
</svg>
